X:1
T:Title
%%score ( 1 2 ) { 3 | 4 }
L:1/8
Q:1/4=140
M:3/4
K:G
V:1 treble nm="Grand Piano, Soprano"
V:2 treble 
V:3 treble nm="Choir Pad, Hold Out Your Hand"
V:4 bass 
V:1
 D2 G2 [DA]2 | [GB]2 [FA]2 [GB]2 | [Gd]2 [Fc]2 [GB]2 | [FA]4 z2 | D2 [DA]2 [DB]2 | %5
w: By~James~Ramsey~Murray * *|||||
 [Dc]2 [DB]2 [CA]2 | [CA]2 [B,G]2 [DA]2 | [GB]4 z2 | [GB]2 [DA]2 [GB]2 | [Gd]2 [Fc]2 [GB]2 | %10
w: |||||
 [EA]2 [E^G]2 [EA]2 | c2 B2 [EA]2 | [DF]2 [^CG]2 [DA]2 | [GB]2 [DA]2 [DG]2 | [DF]2 [^CG]2 [CE]2 | %15
w: |||||
 D4 z2 | [Gd]2 [Gd]2 [GB]2 | [Gd]4 z2 | [EG]2 [EG]2 [B,E]2 | [EG]4 z2 | [FA]2 [FA]2 [GB]2 | %21
w: ||||||
 [Bd]2 [Ac]2 [GB]2 | [GB]6 | [FA]4 z2 | [Gd]2 [Gd]2 [GB]2 | [Gd]4 z2 | [=FG]2 [FB]2 [Fd]2 | %27
w: ||||||
 [Ee]4 [Ge]2 | d2- [Fd]2 [GB]2 | [Ec]2 [DB]2 [CA]2 | [B,G]6- | [B,G]4 z2 |] %32
w: |||||
V:2
 x6 | x6 | x6 | x6 | x6 | x6 | x6 | x6 | x6 | x6 | x6 | E4 z2 | x6 | x6 | x6 | x6 | x6 | x6 | x6 | %19
 x6 | x6 | x6 | x6 | x6 | x6 | x6 | x6 | x6 | G2 z2 z2 | x6 | x6 | x6 |] %32
V:3
 B,2 B,2 C2 | D2 D2 D2 | D2 D2 D2 | D4 z2 | F,2 F,2 G,2 | A,2 G,2 F,2 | F,2 G,2 F,2 | G,4 z2 | %8
 D2 D2 D2 | D2 D2 D2 | C2 C2 C2 | C2[K:bass] G,2 C2 | A,2 A,2 D2 | D2 D2 B,2 | A,2 A,2 G,2 | %15
 F,4 z2 | B,2 B,2 D2 | B,4 z2 | B,2 B,2 G,2 | B,4 z2 | D2 D2 D2 | D4 D2 | D6- | D4 z2 | %24
 B,2 B,2 D2 | B,4 z2 | B,2 D2 B,2 | C4 C2 | B,2 A,2 G,2 | A,2 G,2 F,2 | G,6- | G,4 z2 |] %32
V:4
 G,2 G,2 G,2 | G,2 D,2 G,2 | B,2 A,2 G,2 | D,4 z2 | D,2 D,2 D,2 | D,2 D,2 D,2 | D,2 E,2 D,2 | z6 | %8
 G,2 F,2 G,2 | B,2 A,2 G,2 | C,2 C,2 C,2 | A,,2 B,,2 C,2 | D,2 E,2 F,2 | G,2 F,2 G,2 | z2 z2 A,,2 | %15
 D,4 z2 | G,2 G,2 G,2 | G,4 z2 | E,2 E,2 E,2 | E,4 z2 | D,2 D,2 D,2 | D,4 D,2 | D,6- | D,4 z2 | %24
 G,2 G,2 G,2 | G,4 z2 | G,2 G,2 G,2 | C,4 C,2 | D,4 E,2 | A,,2 D,2 D,2 | G,,6- | G,,4 z2 |] %32

